X: 110206
T: JOHNNIE LAD
Q: "Reel."
R:  Reel.
%R: reel
B: James Kerr "Merry Melodies" v.1 p.10 s.2 #6
Z: 2017 John Chambers <jc:trillian.mit.edu>
M: C
L: 1/8
K: G
|: g |!segno!\
B2BG A2Ac | B2Bd (ef)gd |\
B2BG A2Ac | B2Bd e2e :|\
B |\
efge fdBd | efge f2(df) |
efge afge | fdBd e2(eB) |\
efge fdBd | efge f2(df) |\
efge afge | fdBd efgd |]\
"_Fine."HG4 ||

% %newpage
%%sep 1 1 500
%%sep 1 1 500
%%center Set. 16th.

%%sep 1 1 500
%%sep 1 1 500

